symbols/web/15mp/materialsymbolsrounded/15mp_wght700gradN25fill1_24px.svg

<svg xmlns="http://www.w3.org/2000/svg" height="24" width="24"><path d="M9.3 11.775q.3 0 .5-.213.2-.212.2-.512V6.9q0-.4-.275-.687-.275-.288-.7-.288H7.8q-.3 0-.5.2t-.2.5q0 .3.212.512.213.213.513.213h.75v3.725q0 .3.213.5.212.2.512.2Zm3.45 0h2.65q.4 0 .687-.288.288-.287.288-.687V9.35q0-.4-.288-.688-.287-.287-.687-.287h-1.95V7.35h2.25q.275 0 .475-.213.2-.212.2-.512 0-.3-.2-.5t-.5-.2H13q-.425 0-.7.275-.275.275-.275.7v1.45q0 .4.275.687.275.288.7.288h1.95v1.025h-2.225q-.3 0-.5.2t-.2.5q0 .3.213.512.212.213.512.213Zm-7.35 9.85q-1.275 0-2.15-.875t-.875-2.15V5.4q0-1.275.875-2.15t2.15-.875h13.2q1.275 0 2.15.875t.875 2.15v13.2q0 1.275-.875 2.15t-2.15.875Zm1.45-3.55q.3 0 .5-.213.2-.212.2-.512v-3.4h1.025v2.125q0 .3.213.5.212.2.512.2.3 0 .5-.213.2-.212.2-.512v-2.1h1.05v3.425q0 .3.213.5.212.2.512.2.3 0 .5-.213.2-.212.2-.512V13.5q0-.4-.287-.688-.288-.287-.688-.287H7.1q-.4 0-.688.287-.287.288-.287.688v3.875q0 .3.213.5.212.2.512.2Zm7.4 0q.3 0 .5-.213.2-.212.2-.512v-.6h1.95q.4 0 .687-.288.288-.287.288-.687V13.5q0-.4-.288-.688-.287-.287-.687-.287h-2.4q-.4 0-.688.275-.287.275-.287.7v3.875q0 .3.213.5.212.2.512.2Zm.7-4.125h1.5v1.375h-1.5Z"/></svg>

<svg xmlns="http://www.w3.org/2000/svg" height="24" width="24"><path d="M9.3 11.775Q9.6 11.775 9.8 11.562Q10 11.35 10 11.05V6.9Q10 6.5 9.725 6.213Q9.45 5.925 9.025 5.925H7.8Q7.5 5.925 7.3 6.125Q7.1 6.325 7.1 6.625Q7.1 6.925 7.312 7.137Q7.525 7.35 7.825 7.35H8.575V11.075Q8.575 11.375 8.788 11.575Q9 11.775 9.3 11.775ZM12.75 11.775H15.4Q15.8 11.775 16.087 11.487Q16.375 11.2 16.375 10.8V9.35Q16.375 8.95 16.087 8.662Q15.8 8.375 15.4 8.375H13.45V7.35H15.7Q15.975 7.35 16.175 7.137Q16.375 6.925 16.375 6.625Q16.375 6.325 16.175 6.125Q15.975 5.925 15.675 5.925H13Q12.575 5.925 12.3 6.2Q12.025 6.475 12.025 6.9V8.35Q12.025 8.75 12.3 9.037Q12.575 9.325 13 9.325H14.95V10.35H12.725Q12.425 10.35 12.225 10.55Q12.025 10.75 12.025 11.05Q12.025 11.35 12.238 11.562Q12.45 11.775 12.75 11.775ZM5.4 21.625Q4.125 21.625 3.25 20.75Q2.375 19.875 2.375 18.6V5.4Q2.375 4.125 3.25 3.25Q4.125 2.375 5.4 2.375H18.6Q19.875 2.375 20.75 3.25Q21.625 4.125 21.625 5.4V18.6Q21.625 19.875 20.75 20.75Q19.875 21.625 18.6 21.625ZM6.85 18.075Q7.15 18.075 7.35 17.862Q7.55 17.65 7.55 17.35V13.95H8.575V16.075Q8.575 16.375 8.788 16.575Q9 16.775 9.3 16.775Q9.6 16.775 9.8 16.562Q10 16.35 10 16.05V13.95H11.05V17.375Q11.05 17.675 11.263 17.875Q11.475 18.075 11.775 18.075Q12.075 18.075 12.275 17.862Q12.475 17.65 12.475 17.35V13.5Q12.475 13.1 12.188 12.812Q11.9 12.525 11.5 12.525H7.1Q6.7 12.525 6.412 12.812Q6.125 13.1 6.125 13.5V17.375Q6.125 17.675 6.338 17.875Q6.55 18.075 6.85 18.075ZM14.25 18.075Q14.55 18.075 14.75 17.862Q14.95 17.65 14.95 17.35V16.75H16.9Q17.3 16.75 17.587 16.462Q17.875 16.175 17.875 15.775V13.5Q17.875 13.1 17.587 12.812Q17.3 12.525 16.9 12.525H14.5Q14.1 12.525 13.812 12.8Q13.525 13.075 13.525 13.5V17.375Q13.525 17.675 13.738 17.875Q13.95 18.075 14.25 18.075ZM14.95 13.95H16.45V15.325H14.95Z"/></svg>
